svgs/sharp-light/light-switch.svg

<svg xmlns="http://www.w3.org/2000/svg" viewBox="0 0 384 512"><!--! Font Awesome Pro 6.6.0 by @fontawesome - https://fontawesome.com License - https://fontawesome.com/license (Commercial License) Copyright 2024 Fonticons, Inc. --><path d="M176 48l0-16L32 32l0 448 144 0 0-16 0-16 32 0 0 16 0 16 144 0 0-448L208 32l0 16 0 16-32 0 0-16zM0 0L32 0 352 0l32 0 0 32 0 448 0 32-32 0L32 512 0 512l0-32L0 32 0 0zM96 240l0-112 0-32 32 0 128 0 32 0 0 32 0 112 0 32 0 112 0 32-32 0-128 0-32 0 0-32 0-112 0-32zm32 32l0 112 128 0 0-112-128 0zm0-32l128 0 0-112-128 0 0 112z"/></svg>

<svg xmlns="http://www.w3.org/2000/svg" viewBox="0 0 384 512"><!--! Font Awesome Pro 6.4.2 by @fontawesome - https://fontawesome.com License - https://fontawesome.com/license (Commercial License) Copyright 2023 Fonticons, Inc. --><path d="M176 48V32H32V480H176V464 448h32v16 16H352V32H208V48 64H176V48zM0 0H32 352h32V32 480v32H352 32 0V480 32 0zM96 240V128 96h32H256h32v32V240v32V384v32H256 128 96V384 272 240zm32 32V384H256V272H128zm0-32H256V128H128V240z"/></svg>
